build/Karasa-Jaga/scalable/status/network-wired-acquiring-symbolic.svg

<svg height="16" width="16" xmlns="http://www.w3.org/2000/svg"><g fill="#bebebe"><path d="m.40429688 3.9804688a.151613.151613 0 0 0 -.13671876.1523437v9.0820315a.151613.151613 0 0 0 .15234376.152344h4.62890622v.949218h-.8515625a.151613.151613 0 0 0 -.1523437.152344v.564453a.151613.151613 0 0 0 .1523437.152344h4.0136719a.151613.151613 0 0 0 .1523437-.152344v-.564453a.151613.151613 0 0 0 -.1523437-.152344h-.8496094v-.949218h4.6269529a.151613.151613 0 0 0 .152344-.152344v-.75586c-.047313.003094-.092962.015625-.140625.015625-.334884 0-.656006-.092288-.957031-.230468v.146484h-2.4511721c-.1921349.052879-.3898619.083984-.5917969.083984s-.399662-.031105-.5917969-.083984h-2.8164062c-.1921349.052879-.3898619.083984-.5917969.083984-.1954875 0-.3853989-.034617-.5722656-.083984h-2.0625v-7.4355469h9.6777346v2.7714844c.322595-.1491646.669858-.2427225 1.029297-.2324219.023187.000678.045269.0083524.068359.0097656v-3.3710937a.151613.151613 0 0 0 -.152344-.1523437h-11.56835912a.151613.151613 0 0 0 -.015625 0z" opacity=".35"/><path d="m15.939453.41796875-3.527344.00195313v4.50585932h1.304688l.025391 3.3261719c.463138.4635843.763762 1.0910576.763671 1.7480469a1.1562936 1.1562936 0 0 1 0 .027344c-.015026.624525-.302679 1.21451-.738281 1.660156l.019531 2.576172-4.7070309.017578-.7773437.003906.7773437.763672h4.8828129l.226562-.136719.501953-.648437-.070312-9.3378908 1.318359-.0019531zm-.619141.66601565v3.1738281l-2.289062.0019531v-3.1738281z" opacity=".35"/><g stroke-width=".9"><path d="m5.35 10a1.35 1.35 0 0 1 -2.7 0 1.35 1.35 0 1 1 2.7 0z"/><path d="m9.35 10a1.35 1.35 0 0 1 -2.7 0 1.35 1.35 0 1 1 2.7 0z"/><path d="m13.35 10a1.35 1.35 0 0 1 -2.7 0 1.35 1.35 0 1 1 2.7 0z"/><path d="m13.35 10a1.35 1.35 0 0 1 -2.7 0 1.35 1.35 0 1 1 2.7 0z"/></g></g></svg>

<?xml version="1.0" encoding="UTF-8" standalone="no"?>
<!-- Created with Inkscape (http://www.inkscape.org/) -->

<svg
   xmlns:osb="http://www.openswatchbook.org/uri/2009/osb"
   xmlns:dc="http://purl.org/dc/elements/1.1/"
   xmlns:cc="http://creativecommons.org/ns#"
   xmlns:rdf="http://www.w3.org/1999/02/22-rdf-syntax-ns#"
   xmlns:svg="http://www.w3.org/2000/svg"
   xmlns="http://www.w3.org/2000/svg"
   xmlns:xlink="http://www.w3.org/1999/xlink"
   xmlns:sodipodi="http://sodipodi.sourceforge.net/DTD/sodipodi-0.dtd"
   xmlns:inkscape="http://www.inkscape.org/namespaces/inkscape"
   id="svg7384"
   height="16"
   width="16"
   version="1.1"
   inkscape:version="0.92.2 (unknown)"
   sodipodi:docname="network-wired-acquiring-symbolic.svg">
  <defs
     id="defs4225">
    <linearGradient
       id="linearGradient5606-0"
       osb:paint="solid">
      <stop
         id="stop5608-6"
         offset="0"
         style="stop-color:#000000;stop-opacity:1;" />
    </linearGradient>
    <linearGradient
       inkscape:collect="always"
       gradientTransform="matrix(0.08112299,0,0,0.07855526,540.8143,254.8467)"
       gradientUnits="userSpaceOnUse"
       xlink:href="#linearGradient3785-2"
       id="linearGradient3189-2"
       x1="365.51193"
       x2="365.97757"
       y1="408.39655"
       y2="520.1709" />
    <linearGradient
       id="linearGradient3785-2">
      <stop
         id="stop3787-5"
         offset="0"
         style="stop-color:#384880;stop-opacity:1;" />
      <stop
         id="stop3789-7"
         offset="1"
         style="stop-color:#000000;stop-opacity:1;" />
    </linearGradient>
    <linearGradient
       id="linearGradient5606"
       osb:paint="solid">
      <stop
         id="stop5608"
         offset="0"
         style="stop-color:#000000;stop-opacity:1;" />
    </linearGradient>
    <linearGradient
       inkscape:collect="always"
       gradientTransform="matrix(0.08112299,0,0,0.07855526,540.8143,254.8467)"
       gradientUnits="userSpaceOnUse"
       xlink:href="#linearGradient3785-6"
       id="linearGradient3189"
       x1="365.51193"
       x2="365.97757"
       y1="408.39655"
       y2="520.1709" />
    <linearGradient
       id="linearGradient3785-6">
      <stop
         id="stop3787"
         offset="0"
         style="stop-color:#384880;stop-opacity:1;" />
      <stop
         id="stop3789"
         offset="1"
         style="stop-color:#000000;stop-opacity:1;" />
    </linearGradient>
    <linearGradient
       gradientTransform="translate(0,-1036.3622)"
       y2="1052.3365"
       x2="6.2342343"
       y1="1036.4342"
       x1="6.2342343"
       gradientUnits="userSpaceOnUse"
       id="linearGradient3804"
       xlink:href="#linearGradient3779"
       inkscape:collect="always" />
    <linearGradient
       gradientUnits="userSpaceOnUse"
       y2="1052.3365"
       x2="6.2342343"
       y1="1036.4342"
       x1="6.2342343"
       id="linearGradient3812"
       xlink:href="#linearGradient3779"
       inkscape:collect="always" />
    <radialGradient
       gradientTransform="matrix(1.3020488e-5,1.7443014,-1.3603604,1.0154528e-5,1426.7246,1025.7323)"
       gradientUnits="userSpaceOnUse"
       r="5"
       fy="1045.0559"
       fx="11.072059"
       cy="1045.0559"
       cx="11.072059"
       id="radialGradient3796"
       xlink:href="#linearGradient3790"
       inkscape:collect="always" />
    <linearGradient
       gradientUnits="userSpaceOnUse"
       y2="7.984375"
       x2="14.8125"
       y1="7.984375"
       x1="1.1875"
       id="linearGradient3806"
       xlink:href="#linearGradient3800"
       inkscape:collect="always" />
    <linearGradient
       gradientUnits="userSpaceOnUse"
       y2="1052.2942"
       x2="3.4594595"
       y1="1036.4342"
       x1="3.4594595"
       id="linearGradient3785"
       xlink:href="#linearGradient3779"
       inkscape:collect="always" />
    <radialGradient
       gradientTransform="matrix(1.4806489e-6,1.9101011,-1.3873874,1.0754581e-6,1450.2076,1024.0417)"
       gradientUnits="userSpaceOnUse"
       r="8"
       fy="1039.4613"
       fx="8.0720873"
       cy="1039.4613"
       cx="8.0720873"
       id="radialGradient3777"
       xlink:href="#linearGradient3771"
       inkscape:collect="always" />
    <linearGradient
       gradientTransform="translate(-4,27.000017)"
       gradientUnits="userSpaceOnUse"
       y2="1024.1722"
       x2="14.801802"
       y1="1010.4072"
       x1="14.801802"
       id="linearGradient4542"
       xlink:href="#linearGradient4536"
       inkscape:collect="always" />
    <linearGradient
       id="linearGradient3702-501-757">
      <stop
         offset="0"
         style="stop-color:#181818;stop-opacity:0"
         id="stop2895" />
      <stop
         offset="0.5"
         style="stop-color:#181818;stop-opacity:1"
         id="stop2897" />
      <stop
         offset="1"
         style="stop-color:#181818;stop-opacity:0"
         id="stop2899" />
    </linearGradient>
    <linearGradient
       y2="39.999443"
       x2="25.058096"
       y1="47.027729"
       x1="25.058096"
       gradientUnits="userSpaceOnUse"
       id="linearGradient3136"
       xlink:href="#linearGradient3702-501-757"
       inkscape:collect="always" />
    <linearGradient
       id="linearGradient3688-464-309">
      <stop
         offset="0"
         style="stop-color:#181818;stop-opacity:1"
         id="stop2889" />
      <stop
         offset="1"
         style="stop-color:#181818;stop-opacity:0"
         id="stop2891" />
    </linearGradient>
    <radialGradient
       r="2.5"
       fy="43.5"
       fx="4.9929786"
       cy="43.5"
       cx="4.9929786"
       gradientTransform="matrix(2.003784,0,0,1.4,-20.01187,-104.4)"
       gradientUnits="userSpaceOnUse"
       id="radialGradient3134"
       xlink:href="#linearGradient3688-464-309"
       inkscape:collect="always" />
    <linearGradient
       id="linearGradient3688-166-749">
      <stop
         offset="0"
         style="stop-color:#181818;stop-opacity:1"
         id="stop2883" />
      <stop
         offset="1"
         style="stop-color:#181818;stop-opacity:0"
         id="stop2885" />
    </linearGradient>
    <radialGradient
       r="2.5"
       fy="43.5"
       fx="4.9929786"
       cy="43.5"
       cx="4.9929786"
       gradientTransform="matrix(2.003784,0,0,1.4,27.98813,-17.4)"
       gradientUnits="userSpaceOnUse"
       id="radialGradient3132"
       xlink:href="#linearGradient3688-166-749"
       inkscape:collect="always" />
    <linearGradient
       id="linearGradient4536">
      <stop
         id="stop4538"
         offset="0"
         style="stop-color:#ffffff;stop-opacity:1;" />
      <stop
         style="stop-color:#ffffff;stop-opacity:0.15686275;"
         offset="0.08246523"
         id="stop4546" />
      <stop
         style="stop-color:#ffffff;stop-opacity:0.23529412;"
         offset="0.936414"
         id="stop4544" />
      <stop
         id="stop4540"
         offset="1"
         style="stop-color:#ffffff;stop-opacity:0.39215687;" />
    </linearGradient>
    <linearGradient
       id="linearGradient3771">
      <stop
         id="stop3773"
         offset="0"
         style="stop-color:#ffffff;stop-opacity:1;" />
      <stop
         id="stop3775"
         offset="1"
         style="stop-color:#e6e6e6;stop-opacity:1;" />
    </linearGradient>
    <linearGradient
       id="linearGradient3779">
      <stop
         id="stop3781"
         offset="0"
         style="stop-color:#828282;stop-opacity:1;" />
      <stop
         id="stop3783"
         offset="1"
         style="stop-color:#505050;stop-opacity:1;" />
    </linearGradient>
    <linearGradient
       id="linearGradient3800"
       inkscape:collect="always">
      <stop
         id="stop3802"
         offset="0"
         style="stop-color:#000000;stop-opacity:0;" />
      <stop
         style="stop-color:#000000;stop-opacity:1;"
         offset="0.5"
         id="stop3808" />
      <stop
         id="stop3804"
         offset="1"
         style="stop-color:#000000;stop-opacity:0;" />
    </linearGradient>
    <linearGradient
       id="linearGradient3790">
      <stop
         id="stop3792"
         offset="0"
         style="stop-color:#93d0e9;stop-opacity:1;" />
      <stop
         id="stop3794"
         offset="1"
         style="stop-color:#3372b1;stop-opacity:1;" />
    </linearGradient>
    <inkscape:perspective
       sodipodi:type="inkscape:persp3d"
       inkscape:vp_x="0 : 8 : 1"
       inkscape:vp_y="0 : 1000 : 0"
       inkscape:vp_z="16 : 8 : 1"
       inkscape:persp3d-origin="8 : 5.3333333 : 1"
       id="perspective19" />
    <linearGradient
       id="SpecificGradient"
       x1="6.5625"
       y1="2"
       x2="6.5625"
       y2="14.000651"
       gradientUnits="userSpaceOnUse">
      <stop
         style="stop-color:#ad0707;stop-opacity:1;"
         offset="0"
         id="stop3292" />
      <stop
         style="stop-color:#f75535;stop-opacity:1;"
         offset="1"
         id="stop3294" />
    </linearGradient>
    <inkscape:perspective
       id="perspective3648"
       inkscape:persp3d-origin="0.5 : 0.33333333 : 1"
       inkscape:vp_z="1 : 0.5 : 1"
       inkscape:vp_y="0 : 1000 : 0"
       inkscape:vp_x="0 : 0.5 : 1"
       sodipodi:type="inkscape:persp3d" />
    <linearGradient
       inkscape:collect="always"
       xlink:href="#SpecificGradient"
       id="linearGradient3628"
       gradientUnits="userSpaceOnUse"
       x1="6.5625"
       y1="2"
       x2="6.5625"
       y2="14.000651"
       gradientTransform="translate(-20,0)" />
    <clipPath
       clipPathUnits="userSpaceOnUse"
       id="clipPath3635">
      <path
         style="fill:#ff00ff;fill-opacity:1;stroke:none;display:inline"
         d="m -20,0 0,16 16,0 0,-16 -16,0 z m 8,2 c 3.312,0 6,2.6880001 6,6 0,3.312 -2.688,6 -6,6 -3.312,0 -6,-2.688 -6,-6 0,-3.3119999 2.688,-6 6,-6 z m 0,2.15625 c -0.57648,0 -1.133672,0.1167299 -1.625,0.34375 L -8.5,9.625 C -8.273784,9.1343862 -8.15625,8.5753957 -8.15625,8 -8.15625,5.8708574 -9.870857,4.1562499 -12,4.15625 z m -3.46875,2.125 c -0.255374,0.5152866 -0.375,1.1050247 -0.375,1.71875 0,2.129143 1.714607,3.84375 3.84375,3.84375 0.61479,0 1.202796,-0.118796 1.71875,-0.375 l -5.1875,-5.1875 z"
         id="path3637" />
    </clipPath>
    <linearGradient
       inkscape:collect="always"
       xlink:href="#SpecificGradient"
       id="linearGradient3783"
       gradientUnits="userSpaceOnUse"
       x1="6.5625"
       y1="2"
       x2="6.5625"
       y2="14.000651" />
    <linearGradient
       inkscape:collect="always"
       xlink:href="#SpecificGradient"
       id="linearGradient3787"
       gradientUnits="userSpaceOnUse"
       x1="6.5625"
       y1="2"
       x2="6.5625"
       y2="14.000651" />
  </defs>
  <sodipodi:namedview
     pagecolor="#ffffff"
     bordercolor="#666666"
     borderopacity="1"
     objecttolerance="10"
     gridtolerance="10"
     guidetolerance="10"
     inkscape:pageopacity="0"
     inkscape:pageshadow="2"
     inkscape:window-width="1366"
     inkscape:window-height="706"
     id="namedview4223"
     showgrid="false"
     inkscape:zoom="22.627417"
     inkscape:cx="7.1269727"
     inkscape:cy="8.3682226"
     inkscape:window-x="0"
     inkscape:window-y="0"
     inkscape:window-maximized="1"
     inkscape:current-layer="svg7384"
     showguides="true"
     inkscape:guide-bbox="true" />
  <metadata
     id="metadata90">
    <rdf:RDF>
      <cc:Work
         rdf:about="">
        <dc:format>image/svg+xml</dc:format>
        <dc:type
           rdf:resource="http://purl.org/dc/dcmitype/StillImage" />
        <dc:title>Gnome Symbolic Icon Theme</dc:title>
      </cc:Work>
    </rdf:RDF>
  </metadata>
  <title
     id="title9167">Gnome Symbolic Icon Theme</title>
  <path
     style="opacity:0.35;fill:#bebebe;fill-opacity:1;stroke:none;stroke-width:0.91314405"
     d="M 0.40429688 3.9804688 A 0.151613 0.151613 0 0 0 0.26757812 4.1328125 L 0.26757812 13.214844 A 0.151613 0.151613 0 0 0 0.41992188 13.367188 L 5.0488281 13.367188 L 5.0488281 14.316406 L 4.1972656 14.316406 A 0.151613 0.151613 0 0 0 4.0449219 14.46875 L 4.0449219 15.033203 A 0.151613 0.151613 0 0 0 4.1972656 15.185547 L 8.2109375 15.185547 A 0.151613 0.151613 0 0 0 8.3632812 15.033203 L 8.3632812 14.46875 A 0.151613 0.151613 0 0 0 8.2109375 14.316406 L 7.3613281 14.316406 L 7.3613281 13.367188 L 11.988281 13.367188 A 0.151613 0.151613 0 0 0 12.140625 13.214844 L 12.140625 12.458984 C 12.093312 12.462078 12.047663 12.474609 12 12.474609 C 11.665116 12.474609 11.343994 12.382321 11.042969 12.244141 L 11.042969 12.390625 L 8.5917969 12.390625 C 8.399662 12.443504 8.201935 12.474609 8 12.474609 C 7.798065 12.474609 7.600338 12.443504 7.4082031 12.390625 L 4.5917969 12.390625 C 4.399662 12.443504 4.201935 12.474609 4 12.474609 C 3.8045125 12.474609 3.6146011 12.439992 3.4277344 12.390625 L 1.3652344 12.390625 L 1.3652344 4.9550781 L 11.042969 4.9550781 L 11.042969 7.7265625 C 11.365564 7.5773979 11.712827 7.48384 12.072266 7.4941406 C 12.095453 7.4948186 12.117535 7.502493 12.140625 7.5039062 L 12.140625 4.1328125 A 0.151613 0.151613 0 0 0 11.988281 3.9804688 L 0.41992188 3.9804688 A 0.151613 0.151613 0 0 0 0.40429688 3.9804688 z "
     id="rect19685" />
  <path
     style="opacity:0.35;fill:#bebebe;fill-opacity:1;stroke:none;stroke-width:1.0903374"
     d="M 15.939453 0.41796875 L 12.412109 0.41992188 L 12.412109 4.9257812 L 13.716797 4.9257812 L 13.742188 8.2519531 C 14.205326 8.7155374 14.50595 9.3430107 14.505859 10 A 1.1562936 1.1562936 0 0 1 14.505859 10.027344 C 14.490833 10.651869 14.20318 11.241854 13.767578 11.6875 L 13.787109 14.263672 L 9.0800781 14.28125 L 8.3027344 14.285156 L 9.0800781 15.048828 L 13.962891 15.048828 L 14.189453 14.912109 L 14.691406 14.263672 L 14.621094 4.9257812 L 15.939453 4.9238281 L 15.939453 0.41796875 z M 15.320312 1.0839844 L 15.320312 4.2578125 L 13.03125 4.2597656 L 13.03125 1.0859375 L 15.320312 1.0839844 z "
     id="path19869" />
  <path
     d="m 5.35,10 a 1.35,1.35 0 0 1 -2.7,0 1.35,1.35 0 1 1 2.7,0 z"
     style="fill:#bebebe;stroke-width:0.89999998"
     id="path4955-1"
     inkscape:connector-curvature="0" />
  <path
     d="m 9.35,10 a 1.35,1.35 0 0 1 -2.7,0 1.35,1.35 0 1 1 2.7,0 z"
     style="fill:#bebebe;stroke-width:0.89999998"
     id="path4957-2"
     inkscape:connector-curvature="0" />
  <path
     d="m 13.35,10 a 1.35,1.35 0 0 1 -2.7,0 1.35,1.35 0 1 1 2.7,0 z"
     style="fill:#bebebe;stroke-width:0.89999998"
     id="path4959-4"
     inkscape:connector-curvature="0" />
  <path
     inkscape:connector-curvature="0"
     id="path6172"
     style="fill:#bebebe;stroke-width:0.89999998"
     d="m 13.35,10 a 1.35,1.35 0 0 1 -2.7,0 1.35,1.35 0 1 1 2.7,0 z" />
</svg>
